neru-light-classic/22x22/panel/high-signal-lock.svg

<svg xmlns="http://www.w3.org/2000/svg" width="22" height="22" version="1.1">
 <defs>
  <style id="current-color-scheme" type="text/css">
   .ColorScheme-Text { color:#1e333d; } .ColorScheme-Highlight { color:#3fb7ff; }
  </style>
 </defs>
 <path style="fill:currentColor" class="ColorScheme-Text" d="M 11.029297 5 L 11.03125 5.0019531 C 7.99685 5.0019531 5.2653 6.27132 3 8.015625 L 11.03125 17 L 12 15.904297 L 12 14 L 13.013672 14 C 13.033321 12.365092 14.356157 11 16 11 C 16.105075 11 16.204449 11.020383 16.306641 11.03125 L 19 7.984375 C 16.742 6.2628155 14.040297 5 11.029297 5 z M 16 12 C 14.892 12 14 12.9109 14 14.03125 L 14 15 L 13 15 L 13 19 L 19 19 L 19 15 L 18 15 L 18 14.03125 C 18 12.91135 17.108 12 16 12 z M 16 13 C 16.554 13 17 13.4424 17 14 L 17 15 L 15 15 L 15 14 C 15 13.4424 15.446 13 16 13 z"/>
</svg>

<svg xmlns="http://www.w3.org/2000/svg" width="22" height="22"><defs><style id="current-color-scheme" type="text/css"></style></defs><path d="M11.03 5l.001.002c-3.034 0-5.766 1.27-8.031 3.014L11.031 17 12 15.904V14h1.014c.02-1.635 1.342-3 2.986-3 .105 0 .204.02.307.031L19 7.984C16.742 6.263 14.04 5 11.03 5zM16 12c-1.108 0-2 .91-2 2.031V15h-1v4h6v-4h-1v-.969c0-1.12-.892-2.031-2-2.031zm0 1c.554 0 1 .442 1 1v1h-2v-1c0-.558.446-1 1-1z" fill="currentColor" color="#1e333d"/></svg>
